X:1
T:Title
%%score { 1 | ( 2 3 ) }
L:1/8
Q:1/4=100
M:4/4
K:Eb
V:1 treble nm="Grand Piano"
V:2 bass 
V:3 bass 
V:1
 [GB]2 [GB]>=A [GB]2 [EG]2 | E3 F G4 | G2 [FA]B [Bd]c[GB]A | [EG]>F [EG]>A [DF]4 | %4
w: Donnizetti * * * *||||
 [GB]2 [GB]>=A [GB]2 [EG]2 | E3 F G4 | F2 Bc [Fd]2 [DB]2 | [Ec]3 [C=A] [DB]4 | %8
w: ||||
 [FA]2 [FA]>B [FA]2 [DF]2 | [EG]2 [Ac]2 [GB]4 | [FA]2 [FA]>B [FA]2 [DF]2 | [EG]2 [Ge]2 [GB]4 | %12
w: ||||
 [B,GB]2 [GB]>[_G=A] [=GB]2 G2 | E3 F G4 | [Ge]2 [GB]>G F>E [A,B,F]>G | [G,B,E]2 [A,DG]2 [G,E]4 |] %16
w: ||||
V:2
 E,2 z z/ _G/ E,2 E,2 | G,3 [B,D] [E,E]4 | [E,E]2 z G z A z F | z z/ D/ z z/ F/ B,,4 | %4
 E,2 z z/ _G/ E,2 E,2 | G,3 [B,D] [E,E]4 | [F,D]2 DE F,2 F,2 | F,3 F, B,,4 | %8
 B,2 z z/[K:treble] G/ B,2[K:bass] B,2 | E,2 E,2 E,4 | B,,2 z z/ G/ B,,2 B,,2 | E,2 E,2 E,4 | %12
 E,2 [E,B,]2 [E,B,]2 [E,B,E]2 | [E,G,]3 [E,A,D] [E,B,E]4 | %14
 [E,B,]2 z z/ E/ [B,,B,]->[B,,G,B,] z z/ B,/ | E,2 z z/ F/ E,4 |] %16
V:3
 z2 E,2 z4 | x8 | z2 E,2 A,,2 A,,2 | B,,2 B,,2 z4 | z2 E,2 z4 | x8 | z2 F,2 z4 | x8 | %8
 z2 B,2[K:treble] z4[K:bass] | x8 | z2 B,,2 z4 | x8 | x8 | x8 | z2 [E,B,]2 A,2 B,,2 | z2 B,,2 z4 |] %16

